X:190
T: Sen Dwyer's
S: "Barking Mad" - 4 Men and a Dog
Z: B.Black
M: 6/8
L: 1/8
K: D
f/e/ | dAF G2 B | AFD EDE | DED F2 E | FAd f2 e |
dAF G2 B | AFD EDE | DED F2 E | DED D2 :|
F/A/ | B2 A F2 A | B2 A F2 A | B2 A B2 c |1 d2 e f2 d |
B2 A F2 A | B2 A F2 D | EFG F2 E | D3-D2 :|
|2 d2 e f2 e | ded cdc | BcB ABA | GAB A2 c | d3-d2 ||
